X: 27085
T: Miss Kelly's
R: reel
M: 4/4
K: Dmajor
|:d2 (ad) (fd)(ad)|daaf ecAc|d2 (ad) (fd)(ad)|b^gaf ecAc|
d2 (fd) (ad)(fd)|d2 (ad) ecAc|def^g a2(ga)|bgaf ecAc:|
|:.d.f.B.f d.f.B.f|.d.f.B.f .e.c.A.c|defg a2(ga)|bgaf ecAc|
dfBf dfBf|dfBf ecAc|defg a2(ga)|bgaf ecAc:|

